X:1
T:9. Massa's in the Cold Ground
T:Stephen C. Foster
T:9. Massa's in the Cold Ground
C:Stephen C. Foster
L:1/8
M:4/4
K:D
V:1 treble nm="Treble" snm="Tr."
V:1
"^This is one of the most gracefull of the Stephen C. Foster melodies. It has the same simple harmonic strcture which is characteristic of all his compositions. The words voice the love of the servants for the kind master." A3 B AFED | %1
w: 3.Mas- sa make de dark- ies|
w: 1.Round de mead- ows am a-|
w: 2.When de au- tumn leaves were|
 d4 B2 z B | A2 F2 F3 D | E6 A2 | A3 B AFED | d4 B2 z2 | BAF z F2 E->E | D6 A2 | A3 B AFED | %9
w: love him, *|Cayse he was so|kind, _|Now they sad- ly weep a-|bove him,|Mourn- ing cayse leave dem be-|hind. I|can- not work be- fore to-|
w: ring- ing De|dark- ey's mourn- ful|song, *|While de mock- ing- bird am|sing- ing,|Hap- py as day am _|long. *|Where de i- vy am a-|
w: fall- ing, *|When de days were|cold, 'Twas|hard to hear old Mas- sa|call- ing,|Cayse he was weak and _|old. *|Now de or- ange trees am|
 d4 B2 z2 | A3 F F2 D2 | E6 A2 | A3 B AFED | d4 B2 z2 | BAFD F2 E2 | D6 z2 ||"^Chorus" d4 c2 B2 | %17
w: mor- row,|Cayse de tear- drops|flow; I|try to drive a- way my|sor- row,|Pick- ing on de old ban-|jo.||
w: creep- ing,|O'er de grass- y|mound, _|Dere old Mas- sa am a-|sleep- ing,|Sleep- ing in de cold, cold|ground.||
w: bloom- ing,|On de sand- y|shore, _|Now de sum- mer days am|com- ing,|Mas- sa neb- ber calls no|more.|Down in the|
 A4 F2 z2 | B2 A2 F2 D2 | E6 z2 | A3 B AFED | d4 B2 z2 | BAFD F2 E2 | D6 z2 |] %24
w: |||||||
w: |||||||
w: corn- field|Hear dat mourn- ful|sound;|All de dark- ies am a-|weep- ing,|Mas- sa's in de cold, cold|ground.|

